theme/essential/pix_core/e/remove_link.svg

<!DOCTYPE svg PUBLIC "-//W3C//DTD SVG 1.1//EN" "http://www.w3.org/Graphics/SVG/1.1/DTD/svg11.dtd" [
	<!ENTITY ns_flows "http://ns.adobe.com/Flows/1.0/">
]><svg xmlns="http://www.w3.org/2000/svg" width="16" height="16" viewBox="0 0 16 16" preserveAspectRatio="xMinYMid meet" overflow="visible"><path d="M0 6h3v1h-3v-1zm7.4 4.6c.1.1.1.3.1.4 0 .3-.1.5-.3.8l-2.5 2.5c-.2.2-.5.3-.7.3s-.5-.1-.7-.3l-1.5-1.5c-.2-.2-.3-.5-.3-.7 0-.3.1-.5.3-.7l2.5-2.5c.2-.4.4-.5.7-.5.2 0 .3 0 .4.1l1-1c-.4-.3-.9-.5-1.4-.5-.7 0-1.3.3-1.8.8l-2.5 2.5c-.5.5-.7 1-.7 1.7s.2 1.3.7 1.7l1.5 1.5c.5.6 1.1.8 1.8.8s1.3-.2 1.7-.7l2.5-2.5c.4-.4.7-1 .7-1.6 0-.6-.1-1.2-.5-1.6l-1 1zm-3.7-6.3l-3-3 .7-.7 3 3-.7.7zm2.3-4.3h1v3h-1v-3zm9.3 2.2l-1.5-1.5c-.5-.5-1.1-.7-1.8-.7s-1.3.2-1.7.7l-2.5 2.5c-.5.5-.7 1-.8 1.6s.2 1.2.5 1.7l1-1c0-.2-.1-.3-.1-.5 0-.3.1-.5.3-.8l2.5-2.5c.2-.2.5-.3.7-.3s.5.1.7.3l1.5 1.5c.2.2.3.5.3.7s-.1.5-.3.7l-2.5 2.5c-.2.2-.5.3-.8.3-.2 0-.3 0-.4-.1l-1 1c.6.5 1.1.7 1.6.7.7 0 1.3-.2 1.8-.7l2.5-2.5c.5-.6.7-1.1.7-1.8s-.2-1.3-.7-1.8zm-6.3 10.8h1v3h-1v-3zm3.3-1.3l3 3-.7.7-3-3 .7-.7zm.7-2.7h3v1h-3v-1z" fill="#999"/></svg>

<?xml version="1.0" encoding="utf-8"?>
<!-- Generator: Adobe Illustrator 15.1.0, SVG Export Plug-In  -->
<!DOCTYPE svg PUBLIC "-//W3C//DTD SVG 1.1//EN" "http://www.w3.org/Graphics/SVG/1.1/DTD/svg11.dtd" [
	<!ENTITY ns_flows "http://ns.adobe.com/Flows/1.0/">
]>
<svg version="1.1"
	 xmlns="http://www.w3.org/2000/svg" xmlns:xlink="http://www.w3.org/1999/xlink" xmlns:a="http://ns.adobe.com/AdobeSVGViewerExtensions/3.0/"
	 x="0px" y="0px" width="16px" height="16px" viewBox="0 0 16 16" style="overflow:visible;enable-background:new 0 0 16 16;"
	 xml:space="preserve" preserveAspectRatio="xMinYMid meet">
<defs>
</defs>
<path style="fill:#29a1c4;" d="M0,6h3v1H0V6z M7.4,10.6c0.1,0.1,0.1,0.3,0.1,0.4c0,0.3-0.1,0.5-0.3,0.8l-2.5,2.5
	c-0.2,0.2-0.5,0.3-0.7,0.3s-0.5-0.1-0.7-0.3l-1.5-1.5c-0.2-0.2-0.3-0.5-0.3-0.7c0-0.3,0.1-0.5,0.3-0.7l2.5-2.5
	C4.5,8.5,4.7,8.4,5,8.4c0.2,0,0.3,0,0.4,0.1l1-1C6,7.2,5.5,7,5,7C4.3,7,3.7,7.3,3.2,7.8l-2.5,2.5C0.2,10.8,0,11.3,0,12
	c0,0.7,0.2,1.3,0.7,1.7l1.5,1.5C2.7,15.8,3.3,16,4,16s1.3-0.2,1.7-0.7l2.5-2.5c0.4-0.4,0.7-1,0.7-1.6c0-0.6-0.1-1.2-0.5-1.6
	L7.4,10.6z M3.7,4.3l-3-3l0.7-0.7l3,3L3.7,4.3z M6,0h1v3H6V0z M15.3,2.2l-1.5-1.5C13.3,0.2,12.7,0,12,0c-0.7,0-1.3,0.2-1.7,0.7
	L7.8,3.2C7.3,3.7,7.1,4.2,7,4.8S7.2,6,7.5,6.5l1-1C8.5,5.3,8.4,5.2,8.4,5c0-0.3,0.1-0.5,0.3-0.8l2.5-2.5c0.2-0.2,0.5-0.3,0.7-0.3
	s0.5,0.1,0.7,0.3l1.5,1.5c0.2,0.2,0.3,0.5,0.3,0.7s-0.1,0.5-0.3,0.7l-2.5,2.5c-0.2,0.2-0.5,0.3-0.8,0.3c-0.2,0-0.3,0-0.4-0.1l-1,1
	C10,8.8,10.5,9,11,9c0.7,0,1.3-0.2,1.8-0.7l2.5-2.5C15.8,5.2,16,4.7,16,4S15.8,2.7,15.3,2.2z M9,13h1v3H9V13z M12.3,11.7l3,3
	l-0.7,0.7l-3-3L12.3,11.7z M13,9h3v1h-3V9z"/>
</svg>
